X: 143113
T: The LOCOMOTIVE
Q: "Hornpipe."
R: Hornpipe.
%R: hornpipe, reel
B: James Kerr "Merry Melodies" v.1 p.43 s.1 #13
Z: 2016 John Chambers <jc:trillian.mit.edu>
M: C
L: 1/8
K: D
ud>ue |\
f>ed>c d>AF>A | f>ed>c d>AF>A |\
B>dg>f e>dc>d | (3efd (3cdB A>cd>e |\
f>ed>c d>AF>A |
f>ed>c B>dg>b |\
b>a^g>a =g>ea>g | f2d2d2 ::\
c>d |\
e>dc>d e2a2 | f>ed>e f2a2 |\
g>fg>a b>ag>f |
(3efe (3dcB (3ABA (3GFE |\
D>FA>d f>af>d | g>fg>a b2a>g |\
(3fag (3fed | (3cba (3gfe | f2d2d2 H:|

%%sep 1 1 500
%%sep 1 1 500

